lib/brands/icons/apple-homekit.svg

<svg xmlns="http://www.w3.org/2000/svg" fill="none" aria-hidden="true" viewBox="0 0 48 48"><g id="apple-homekit-Icon"><g id="Group"><path id="Vector" fill="#FA9012" d="M39.678 21.3603L36.7046 19.0119V13.6733C36.7046 13.3101 36.561 13.2087 36.3033 13.2087H33.5833C33.2877 13.2087 33.1061 13.2679 33.1061 13.6733V16.1695C29.1739 13.0651 24.9123 9.69892 24.7518 9.57221C24.4308 9.3188 24.2323 9.25122 24 9.25122C23.7719 9.25122 23.5734 9.3188 23.2482 9.57221C22.9272 9.82563 8.75284 21.0224 8.32203 21.3603C7.79831 21.7742 7.94614 22.3697 8.52899 22.3697H11.2954V37.3888C11.2954 38.3602 11.684 38.7488 12.609 38.7488H35.391C36.316 38.7488 36.7046 38.3602 36.7046 37.3888V22.3655H39.471C40.0539 22.3655 40.2017 21.7742 39.678 21.3603ZM34.3731 35.277C34.3731 35.9485 34.0268 36.4131 33.3257 36.4131H14.6701C13.969 36.4131 13.6226 35.9485 13.6226 35.277V21.242C13.6226 20.4268 13.9774 19.9073 14.3871 19.5863L23.358 12.5034C23.5945 12.3175 23.7973 12.2373 23.9958 12.2373C24.1943 12.2373 24.397 12.3175 24.6335 12.5076L33.6044 19.5906C34.0099 19.9116 34.3689 20.4311 34.3689 21.2462V35.277H34.3731Z"/><path id="Vector_2" fill="#FFAB1F" d="M33.6128 19.5864L24.6377 12.4992C24.4012 12.3133 24.19 12.2331 23.9999 12.2331C23.8056 12.2331 23.5987 12.3133 23.3622 12.5034L14.387 19.5864C13.9816 19.9074 13.6226 20.4269 13.6226 21.242V35.277C13.6226 35.9485 13.9689 36.4131 14.67 36.4131H33.3256C34.0267 36.4131 34.3731 35.9485 34.3731 35.277V21.242C34.3731 20.4269 34.0183 19.9074 33.6128 19.5864ZM32.0501 33.1694C32.0501 33.7945 31.6953 34.0859 31.1758 34.0859H16.8283C16.3088 34.0859 15.954 33.7945 15.954 33.1694V22.2092C15.954 21.601 16.0976 21.2547 16.5284 20.9126C16.7734 20.7183 23.2988 15.5655 23.472 15.4304C23.6451 15.291 23.831 15.2234 23.9999 15.2234C24.1689 15.2234 24.3547 15.2952 24.5279 15.4304C24.701 15.5697 31.2265 20.7225 31.4714 20.9126C31.9023 21.2547 32.0459 21.6052 32.0459 22.2092L32.0501 33.1694Z"/><path id="Vector_3" fill="#FFBE41" d="M31.4716 20.9126C31.2266 20.7225 24.7012 15.5655 24.528 15.4303C24.3548 15.291 24.169 15.2234 24 15.2234C23.8311 15.2234 23.6453 15.2952 23.4721 15.4303C23.2989 15.5697 16.7735 20.7225 16.5285 20.9126C16.0977 21.2547 15.9541 21.6052 15.9541 22.2092V33.1694C15.9541 33.7945 16.3089 34.0859 16.8284 34.0859H31.1759C31.6954 34.0859 32.0502 33.7945 32.0502 33.1694V22.2092C32.046 21.6052 31.9024 21.2547 31.4716 20.9126ZM29.7188 31.0618C29.7188 31.5645 29.44 31.7587 29.0599 31.7587H18.9402C18.5601 31.7587 18.2813 31.5645 18.2813 31.0618V23.1806C18.2813 22.8301 18.2813 22.5513 18.6656 22.243C18.9191 22.0403 23.4468 18.4671 23.5819 18.3615C23.7171 18.2559 23.8522 18.201 24 18.201C24.1521 18.2052 24.2999 18.2644 24.4182 18.3615C24.5533 18.4671 29.081 22.0403 29.3344 22.243C29.7188 22.5513 29.7188 22.8301 29.7188 23.1806V31.0618Z"/><path id="Vector_4" fill="#FFD260" d="M29.3344 22.243C29.081 22.0402 24.5533 18.4671 24.4181 18.3615C24.2999 18.2601 24.152 18.2052 24 18.201C23.8522 18.201 23.717 18.2559 23.5819 18.3615C23.4467 18.4671 18.9148 22.0402 18.6656 22.243C18.2813 22.5513 18.2812 22.83 18.2812 23.1806V31.0618C18.2812 31.5644 18.56 31.7587 18.9401 31.7587H29.0556C29.4358 31.7587 29.7145 31.5644 29.7145 31.0618V23.1806C29.7187 22.8258 29.7187 22.5471 29.3344 22.243ZM27.3915 28.9585C27.3915 29.347 27.1972 29.4315 26.9269 29.4315H21.0773C20.807 29.4315 20.6127 29.3428 20.6127 28.9585V24.1478C20.6127 23.8775 20.7352 23.6156 20.9421 23.4467C21.0604 23.3495 23.603 21.3602 23.6917 21.2884C23.8691 21.1406 24.1309 21.1406 24.3083 21.2884C24.4012 21.3602 26.9396 23.3495 27.0579 23.4467C27.2691 23.6199 27.3915 23.8775 27.3873 24.1478L27.3915 28.9585Z"/><path id="Vector_5" fill="#FFE780" d="M24.0002 29.4273H26.9229C27.1933 29.4273 27.3875 29.3386 27.3875 28.9543V24.1479C27.3875 23.8775 27.2651 23.6157 27.0581 23.4467C26.9398 23.3496 24.3972 21.3603 24.3085 21.2885C24.1311 21.1407 23.8693 21.1407 23.6919 21.2885C23.6032 21.3603 21.0606 23.3496 20.9423 23.4467C20.7312 23.6199 20.6087 23.8775 20.6129 24.1479V28.9543C20.6129 29.3429 20.8072 29.4273 21.0775 29.4273H24.0002Z"/></g></g></svg>

<svg xmlns="http://www.w3.org/2000/svg" fill="none" aria-hidden="true" viewBox="0 0 48 48"><path fill="#FA9012" d="m39.678 21.36-2.973-2.348v-5.339c0-.363-.144-.464-.402-.464h-2.72c-.295 0-.477.059-.477.464v2.496l-8.354-6.597c-.321-.253-.52-.32-.752-.32-.228 0-.427.067-.752.32-.32.254-14.495 11.45-14.926 11.788-.524.414-.376 1.01.207 1.01h2.766v15.019c0 .971.389 1.36 1.314 1.36h22.782c.925 0 1.314-.389 1.314-1.36V22.365h2.766c.583 0 .73-.59.207-1.005Zm-5.305 13.917c0 .672-.346 1.136-1.047 1.136H14.67c-.701 0-1.047-.464-1.047-1.136V21.242c0-.815.354-1.335.764-1.656l8.971-7.083c.236-.185.44-.266.638-.266s.401.08.638.27l8.97 7.084c.406.32.765.84.765 1.655v14.031h.004Z"/><path fill="#FFAB1F" d="M33.613 19.586 24.638 12.5c-.237-.186-.448-.266-.638-.266-.194 0-.401.08-.638.27l-8.975 7.083c-.405.321-.764.84-.764 1.656v14.035c0 .672.346 1.136 1.047 1.136h18.656c.7 0 1.047-.464 1.047-1.136V21.242c0-.815-.355-1.335-.76-1.656ZM32.05 33.17c0 .626-.355.917-.874.917H16.828c-.52 0-.874-.291-.874-.917V22.21c0-.608.144-.954.574-1.296.245-.195 6.77-5.348 6.944-5.483a.856.856 0 0 1 .528-.207c.169 0 .355.072.528.207.173.14 6.699 5.293 6.943 5.483.431.342.575.692.575 1.296l.004 10.96Z"/><path fill="#FFBE41" d="M31.472 20.913c-.245-.19-6.77-5.348-6.944-5.483a.856.856 0 0 0-.528-.207.882.882 0 0 0-.528.207c-.173.14-6.699 5.293-6.944 5.483-.43.342-.574.692-.574 1.296v10.96c0 .626.355.917.874.917h14.348c.52 0 .874-.291.874-.917V22.21c-.004-.604-.148-.954-.578-1.296Zm-1.753 10.149c0 .502-.279.697-.66.697H18.94c-.38 0-.659-.195-.659-.697V23.18c0-.35 0-.63.385-.938.253-.203 4.78-3.776 4.916-3.881A.667.667 0 0 1 24 18.2c.152.004.3.063.418.16.135.106 4.663 3.68 4.916 3.882.385.308.385.587.385.938v7.88Z"/><path fill="#FFD260" d="M29.334 22.243c-.253-.203-4.78-3.776-4.916-3.881A.67.67 0 0 0 24 18.2a.666.666 0 0 0-.418.16c-.135.106-4.667 3.68-4.916 3.882-.385.308-.385.587-.385.938v7.88c0 .503.279.698.66.698h10.115c.38 0 .659-.195.659-.697V23.18c.004-.355.004-.634-.38-.938Zm-1.942 6.716c0 .388-.195.473-.465.473h-5.85c-.27 0-.464-.09-.464-.473v-4.811c0-.27.122-.532.33-.701.117-.098 2.66-2.087 2.749-2.159a.484.484 0 0 1 .616 0c.093.072 2.632 2.061 2.75 2.159a.89.89 0 0 1 .33.7l.003 4.812Z"/><path fill="#FFE780" d="M24 29.427h2.923c.27 0 .465-.088.465-.473v-4.806a.911.911 0 0 0-.33-.701c-.118-.097-2.66-2.087-2.75-2.159a.484.484 0 0 0-.616 0c-.089.072-2.631 2.062-2.75 2.159a.891.891 0 0 0-.33.7v4.807c0 .389.195.473.466.473H24Z"/></svg>
